X: 123
M: C
L: 1/8
K: D
g | faef d>BAF | Adfa g(eeg) | faef d>BAG | FAEA FD-Dg |
faef d>BAF | Adfa g(eeg) | f<ae<f d<fBd | Ad(Ted/e/) fdd |]


